X:38
T:Finnished Reel
M:C|
L:1/8
C:© Paul Gitlitz 1984
R:Single Reel
B:Gibltz Fancy, 141 Brand New Old Time Fiddle Tunes Vol. 2
N:A Finnish polka that I just hadn't finished with.
K:Bm
"Bm"FB~B2dB~B2|"A"ecde "F#m"fded|"Bm"FB~B2dBBd|"F#m"fafe cd"Bm"B2|!
"Bm"FBBc dBBd|"A"ecde "F#m"fded|"Bm"(EF)Bc dBBd|"F#m"fafe cd"Bm"B2|!
|:"Bm"~f2df "A"eccd|ecde "F#m"fded|"Bm"~f2df "A"ecde|"F#m"fafe cd"Bm"B2:|]
